X:73
T:Polonoise ur Johannes Malkus Petterssons notbok
T:(SmM I:73)
R:Slängpolska
R:Polska
O:Kvighult, Svenarum, Småland
S:Johnanes Malkus Pettersson
B:Småländsk Musiktradition
N:Ca 1840
M:3/4
L:1/8
K:G
Gg gf fe|eg/e/ d2 dc|BA/B/ cA BG|AF/A/ G2 G,2:|
|:GB BA/B/ A2|Ac cB/c/ B2|Bd dB/d/ c2|dg gf fe|
eg/e/ d2 dc|BA/B/ cA BG|AF/A/ G2 G,2:|

